X: 1
T: Equinox
C: by Joseph Grote
R: jig
Z: 2011 John Chambers <jc:trillian.mit.edu>
S: printed MS of unknown origin
M: 6/8
L: 1/8
K: Edor
A |\
"Em"Bee bee | gee fed | Bcd efg | "D"afd dcd |
"Em"Bee bee | gee fed | "D"Bcd dBA | "Em"BGE E2 :|
K: G
|: F |\
"G"G2B BAB | d2B B3 | "C"c2e efg | "D7"afe dBA |
"G"G2B BAB | d2B B3 | "Am"ABc "D7"cBA | "Em"BGE E2 :|
